X:1
T:Title
%%score ( 1 2 ) { 3 | 4 }
L:1/8
Q:1/4=92
M:6/8
K:C
V:1 treble nm="Grand Piano, Soprano"
V:2 treble 
V:3 treble nm="Choir Pad, İzmir, Ada Rose Gibbs"
V:4 treble 
V:1
 z .e2 z .e2 | [Gd] [Ge]2 [Gd] [Gc]2 | z3 z .d2 | [FA] [Ec]2- [Ec] [EG]2 | %4
 [Ec] [GB]2 [^Fc] [=Fd]2 | [Ge] [Gc]2 A [Gc]2 | [Gc] [GB]2 [Ac] [Bd]2 | [ce] [cd]2- [cd] [Bd]2 | %8
 [Bd] [Bd]2 [Bd] [^Ge]2 | [E^G] [EA]2 [GB] [Ac]2 | [Ac] [GB]2 [GB] [^Fc]2 | [^FB] [Ee]2- [Ee] E2 | %12
 E [Ec]2 [Ec] [^Fc]2 | [^Fc] [Gc]2 [Gd] [Ge]2 | [Ge] [FA]2 [GB] [Ac]2 | [Be] [Bd]2- [Bd] c2- | %16
 c6 |] %17
V:2
 GG-[Gc] [Gd]G-[Gc] | x6 | [Gc] [Ac]2 [Ac]A-[Ac] | x6 | x6 | x6 | x6 | x6 | x6 | x6 | x6 | x6 | %12
 x6 | x6 | x6 | x6 | x6 |] %17
V:3
 E E2 F E2 | F E2 F E2 | E F2 F F2 | C C2- C C2 | C D2 D D2 | D E2 F E2 | E D2 D G2 | ^F G2- G G2 | %8
 G E2 E B,2 | B, C2 D E2 | E E2 E _E2 | _E =E2- E E2 | E C2 C C2 | C E2 F E2 | E C2 C F2 | %15
 F F2- F E2- | E6 |] %17
V:4
 C C2 C C2 | C C2 B, C2 | C[K:bass] F,2 F, F,2 | F, C,2- C, C,2 | C, G,2 G, G,2 | G, C2 C C2 | %6
 C D,2 D, D,2 | D, G,2- G, G,2 | G, ^G,2 G, E,2 | E, A,2 A, A,2 | A, B,2 B, B,2 | B, E,2- E, E,2 | %12
 E, A,2 A, ^G,2 | ^G, =G,2 G, C2 | C F,2 F, F,2 | G, C,2- C, C,2- | C,6 |] %17

